X:45
T: Cow that Ate the Blanket
S: "Treoir"
Z: B.Black
R: jig
M: 6/8
L: 1/8
K: G
A | B2 A BGD | GAG GBd | ege dBG | ABA ABc |
B2 A BGD | GAG GBd | ege dBA | BGF G2 :|
d | gfg efg | eag fed | gfg edB | BAG ABc |
B2 A BGD | GAG GBd | ege dBA | BGF G2 :|
